packages/core/src/svgs/tokens/mono/YFII.svg

<svg width="24" height="24" viewBox="0 0 24 24" fill="none" xmlns="http://www.w3.org/2000/svg">
<path d="M9.97602 5.63403L11.1036 9.8866L6.69009 10.8346L6.40455 9.57005L8.77084 9.04896C8.77084 9.04896 6.73258 7.65378 4.63333 9.40751C3.76822 10.1306 3.46219 11.2697 3.46219 11.7908C3.46219 12.5494 3.67221 14.6352 6.04601 15.3757C7.77522 15.6978 9.41092 14.9787 10.1716 13.002H11.6367C11.6367 13.002 10.9231 15.3272 9.19789 16.2073C8.21477 16.7094 6.31653 17.325 4.24329 16.0964C2.90311 15.1437 2 13.9856 2 11.7458C2 10.0396 3.79523 6.81168 7.34666 7.24524C8.13426 7.34174 8.96986 7.69229 8.96986 7.69229L8.59882 6.01407L9.97602 5.63403ZM18.4996 12.5019H5.49794V11.5017H18.4996V12.5019ZM12.8963 14.1136L14.024 18.3661L15.4006 17.986L15.0302 16.3073C15.0302 16.3073 15.8653 16.6578 16.6533 16.7545C20.2037 17.1885 22 13.9605 22 12.2538C22 10.0146 21.0969 8.85644 19.7562 7.90382C17.6829 6.67517 15.7847 7.29074 14.8016 7.79231C13.0768 8.67241 12.3638 11.0017 12.3638 11.0017H13.8289C14.5891 9.02495 16.2248 8.30186 17.9544 8.62441C20.3283 9.36504 20.5383 11.4507 20.5383 12.2088C20.5383 12.7304 20.2323 13.869 19.3666 14.5921C17.2679 16.3458 15.2296 14.9511 15.2296 14.9511L17.596 14.4296L17.3099 13.1655L12.8963 14.1136Z" fill="white"/>
</svg>

<svg xmlns="http://www.w3.org/2000/svg" width="24" height="24" fill="none" viewBox="0 0 24 24">
    <path fill="#fff" d="m9.976 5.634 1.128 4.253-4.414.948-.285-1.265 2.366-.521s-2.038-1.395-4.138.359c-.865.723-1.17 1.862-1.17 2.383 0 .758.21 2.844 2.583 3.585 1.73.322 3.365-.397 4.126-2.374h1.465s-.714 2.325-2.44 3.205c-.982.502-2.88 1.118-4.954-.11C2.903 15.143 2 13.985 2 11.745c0-1.706 1.795-4.934 5.347-4.5.787.096 1.623.446 1.623.446l-.371-1.678zm8.524 6.868H5.498v-1H18.5zm-5.604 1.612 1.128 4.252 1.377-.38-.37-1.679s.834.35 1.622.448c3.55.434 5.347-2.794 5.347-4.501 0-2.24-.903-3.398-2.244-4.35-2.073-1.229-3.971-.613-4.954-.112-1.725.88-2.438 3.21-2.438 3.21h1.465c.76-1.977 2.396-2.7 4.125-2.378 2.374.741 2.584 2.827 2.584 3.585 0 .521-.306 1.66-1.171 2.383-2.1 1.754-4.137.36-4.137.36l2.366-.522-.286-1.264z"/>
</svg>
